!!!Xfilter:transpose -t P8
!!!OTL: 969. Alter Ringeltanz / zum Oster- und Pfingstabend.
!!!ODT: 1857
!!!ARE: Europa, Mitteleuropa, Deutschland, Hohen - Saathen a.d. Oder
!!!SCT: E0969
!!!TXL: @@DE
!!!YEM: Copyright 1995, estate of Helmut Schaffrath.
**kern	**text
*ICvox	*
!! Mixed meters:  2/4; 3/8
*M2/4	*
*k[]	*
*C:	*
=1	=1
!LO:TX:a:t=Mäßig.	!
!LO:TX:a:t=Hohen-Saathen (an der Oder). 1857.	!
{8g	Ro-
8g	-ſen-
8cc	-roth
8g	iſt
=2	=2
8e	mei-
8f	-ne
4g}	Noth
=3	=3
{8g	Hätt'n
8g	wir
8cc	Geld
8g	ſo
=4	=4
8e	wär
8f	es
4g}	gut.
=5	=5
{4g	Ra,
4a	ra,
=6	=6
4b/	ra!
4r}	.
=7	=7
{8g	als
8a	in
8b	die-
8cc	-ſem
=8	=8
8dd	Krei-
8ee	-ſe
8dd}	ſteht,
{8cc	ſo
=9	=9
8b	wär
8b	es
8a	im-
8a	-mer
=10	=10
4g	ſo.
8r}	.
=||	=||
!LO:TX:a:t=Bewegter.	!
{8g	Jetʒt
=11	=11
8cc	tanʒ
8g	ich
8.g	wohl
16f	und
=12	=12
8e	fol-
8d	-get
8c	mir,
16r}	.
{16f	die
=13	=13
8e	Freud
8d	hat
8e	nun
8f	ein
=14	=14
8g	En-
8g	-de.
8r}	.
{8g	Jetʒt
=15	=15
*M3/8	*
8cc	ſei
8g	die
8g	Freud-
=16	=16
8g	-ſtun-
8e}	-de,
{8g	hab
=17	=17
8cc	mein
8g	Schatʒ
8g	ge-
=18	=18
8g	-fun-
8e	-den.
8r}	.
=19	=19
{8cc	Klatſcht,
8cc	klatſcht
16cc	in
16cc	die
=20	=20
8cc	Hän-
8cc	-de!
8r}	.
==	==
!!!AGN: Tanz - Lied, Reigen, Ostern, Pfingsten
!!!ONB: ESAC (Essen Associative Code) Database: ERK2
!!!AMT: irregular
!!!AIN: vox
!!!EED: Helmut Schaffrath
!!!EEV: 1.0
!!!GTL: Tanz- und Spiellieder.
!!!URL-scan: https://rosdok.uni-rostock.de/mcrviewer/recordIdentifier/rosdok_ppn745177662/iview2/phys_0741.iview2?x=-151.00528573090037&y=215.91861742408946&scale=0.5208463313777512&rotation=0&layout=singlePageLayout
!!!ENC: Anna Maria Matuszewska
!!!EEV: 2024/12/20
*-	*-
